src/shared/prerendered-app/Intro/imgs/info-content/simple.svg

<svg width="538" height="384" viewBox="0 0 538 384" fill="none" xmlns="http://www.w3.org/2000/svg">
<rect width="122" height="119" rx="20" fill="#FF3385"/>
<path d="M96 85.3333V31.6667C96 27.45 92.55 24 88.3333 24H34.6667C30.45 24 27 27.45 27 31.6667V85.3333C27 89.55 30.45 93 34.6667 93H88.3333C92.55 93 96 89.55 96 85.3333ZM48.0833 64.25L57.6667 75.7883L71.0833 58.5L88.3333 81.5H34.6667L48.0833 64.25Z" fill="#F7F7F7" fill-opacity="0.2"/>
<rect width="122" height="119" rx="20" fill="#FF3385"/>
<path d="M96 85.3333V31.6667C96 27.45 92.55 24 88.3333 24H34.6667C30.45 24 27 27.45 27 31.6667V85.3333C27 89.55 30.45 93 34.6667 93H88.3333C92.55 93 96 89.55 96 85.3333ZM48.0833 64.25L57.6667 75.7883L71.0833 58.5L88.3333 81.5H34.6667L48.0833 64.25Z" fill="#F7F7F7" fill-opacity="0.2"/>
<rect x="138" width="122" height="119" rx="20" fill="#FF3385"/>
<path d="M234 85.3333V31.6667C234 27.45 230.55 24 226.333 24H172.667C168.45 24 165 27.45 165 31.6667V85.3333C165 89.55 168.45 93 172.667 93H226.333C230.55 93 234 89.55 234 85.3333ZM186.083 64.25L195.667 75.7883L209.083 58.5L226.333 81.5H172.667L186.083 64.25Z" fill="#F7F7F7" fill-opacity="0.2"/>
<rect x="138" width="122" height="119" rx="20" fill="#FF3385"/>
<path d="M234 85.3333V31.6667C234 27.45 230.55 24 226.333 24H172.667C168.45 24 165 27.45 165 31.6667V85.3333C165 89.55 168.45 93 172.667 93H226.333C230.55 93 234 89.55 234 85.3333ZM186.083 64.25L195.667 75.7883L209.083 58.5L226.333 81.5H172.667L186.083 64.25Z" fill="#F7F7F7" fill-opacity="0.2"/>
<rect x="276" width="122" height="119" rx="20" fill="#FF3385"/>
<path d="M371 85.3333V31.6667C371 27.45 367.55 24 363.333 24H309.667C305.45 24 302 27.45 302 31.6667V85.3333C302 89.55 305.45 93 309.667 93H363.333C367.55 93 371 89.55 371 85.3333ZM323.083 64.25L332.667 75.7883L346.083 58.5L363.333 81.5H309.667L323.083 64.25Z" fill="#F7F7F7" fill-opacity="0.2"/>
<rect x="276" width="122" height="119" rx="20" fill="#FF3385"/>
<path d="M371 85.3333V31.6667C371 27.45 367.55 24 363.333 24H309.667C305.45 24 302 27.45 302 31.6667V85.3333C302 89.55 305.45 93 309.667 93H363.333C367.55 93 371 89.55 371 85.3333ZM323.083 64.25L332.667 75.7883L346.083 58.5L363.333 81.5H309.667L323.083 64.25Z" fill="#F7F7F7" fill-opacity="0.2"/>
<rect y="133" width="122" height="118" rx="20" fill="#FF3385"/>
<path d="M96 218.333V164.667C96 160.45 92.55 157 88.3333 157H34.6667C30.45 157 27 160.45 27 164.667V218.333C27 222.55 30.45 226 34.6667 226H88.3333C92.55 226 96 222.55 96 218.333ZM48.0833 197.25L57.6667 208.788L71.0833 191.5L88.3333 214.5H34.6667L48.0833 197.25Z" fill="#F7F7F7" fill-opacity="0.2"/>
<rect y="133" width="122" height="118" rx="20" fill="#FF3385"/>
<path d="M96 218.333V164.667C96 160.45 92.55 157 88.3333 157H34.6667C30.45 157 27 160.45 27 164.667V218.333C27 222.55 30.45 226 34.6667 226H88.3333C92.55 226 96 222.55 96 218.333ZM48.0833 197.25L57.6667 208.788L71.0833 191.5L88.3333 214.5H34.6667L48.0833 197.25Z" fill="#F7F7F7" fill-opacity="0.2"/>
<rect x="138" y="133" width="122" height="118" rx="20" fill="#FF3385"/>
<path d="M234 218.333V164.667C234 160.45 230.55 157 226.333 157H172.667C168.45 157 165 160.45 165 164.667V218.333C165 222.55 168.45 226 172.667 226H226.333C230.55 226 234 222.55 234 218.333ZM186.083 197.25L195.667 208.788L209.083 191.5L226.333 214.5H172.667L186.083 197.25Z" fill="#F7F7F7" fill-opacity="0.2"/>
<rect x="138" y="133" width="122" height="118" rx="20" fill="#FF3385"/>
<path d="M234 218.333V164.667C234 160.45 230.55 157 226.333 157H172.667C168.45 157 165 160.45 165 164.667V218.333C165 222.55 168.45 226 172.667 226H226.333C230.55 226 234 222.55 234 218.333ZM186.083 197.25L195.667 208.788L209.083 191.5L226.333 214.5H172.667L186.083 197.25Z" fill="#F7F7F7" fill-opacity="0.2"/>
<rect x="276" y="133" width="122" height="118" rx="20" fill="#FF3385"/>
<path d="M371 218.333V164.667C371 160.45 367.55 157 363.333 157H309.667C305.45 157 302 160.45 302 164.667V218.333C302 222.55 305.45 226 309.667 226H363.333C367.55 226 371 222.55 371 218.333ZM323.083 197.25L332.667 208.788L346.083 191.5L363.333 214.5H309.667L323.083 197.25Z" fill="#F7F7F7" fill-opacity="0.2"/>
<rect x="276" y="133" width="122" height="118" rx="20" fill="#FF3385"/>
<path d="M371 218.333V164.667C371 160.45 367.55 157 363.333 157H309.667C305.45 157 302 160.45 302 164.667V218.333C302 222.55 305.45 226 309.667 226H363.333C367.55 226 371 222.55 371 218.333ZM323.083 197.25L332.667 208.788L346.083 191.5L363.333 214.5H309.667L323.083 197.25Z" fill="#F7F7F7" fill-opacity="0.2"/>
<rect y="265" width="122" height="119" rx="20" fill="#FF3385"/>
<path d="M96 351.333V297.667C96 293.45 92.55 290 88.3333 290H34.6667C30.45 290 27 293.45 27 297.667V351.333C27 355.55 30.45 359 34.6667 359H88.3333C92.55 359 96 355.55 96 351.333ZM48.0833 330.25L57.6667 341.788L71.0833 324.5L88.3333 347.5H34.6667L48.0833 330.25Z" fill="#F7F7F7" fill-opacity="0.2"/>
<rect y="265" width="122" height="119" rx="20" fill="#FF3385"/>
<path d="M96 351.333V297.667C96 293.45 92.55 290 88.3333 290H34.6667C30.45 290 27 293.45 27 297.667V351.333C27 355.55 30.45 359 34.6667 359H88.3333C92.55 359 96 355.55 96 351.333ZM48.0833 330.25L57.6667 341.788L71.0833 324.5L88.3333 347.5H34.6667L48.0833 330.25Z" fill="#F7F7F7" fill-opacity="0.2"/>
<rect x="138" y="265" width="122" height="119" rx="20" fill="#FF3385"/>
<path d="M234 351.333V297.667C234 293.45 230.55 290 226.333 290H172.667C168.45 290 165 293.45 165 297.667V351.333C165 355.55 168.45 359 172.667 359H226.333C230.55 359 234 355.55 234 351.333ZM186.083 330.25L195.667 341.788L209.083 324.5L226.333 347.5H172.667L186.083 330.25Z" fill="#F7F7F7" fill-opacity="0.2"/>
<rect x="138" y="265" width="122" height="119" rx="20" fill="#FF3385"/>
<path d="M234 351.333V297.667C234 293.45 230.55 290 226.333 290H172.667C168.45 290 165 293.45 165 297.667V351.333C165 355.55 168.45 359 172.667 359H226.333C230.55 359 234 355.55 234 351.333ZM186.083 330.25L195.667 341.788L209.083 324.5L226.333 347.5H172.667L186.083 330.25Z" fill="#F7F7F7" fill-opacity="0.2"/>
<rect x="276" y="265" width="122" height="119" rx="20" fill="#FF3385"/>
<path d="M371 351.333V297.667C371 293.45 367.55 290 363.333 290H309.667C305.45 290 302 293.45 302 297.667V351.333C302 355.55 305.45 359 309.667 359H363.333C367.55 359 371 355.55 371 351.333ZM323.083 330.25L332.667 341.788L346.083 324.5L363.333 347.5H309.667L323.083 330.25Z" fill="#F7F7F7" fill-opacity="0.2"/>
<rect x="276" y="265" width="122" height="119" rx="20" fill="#FF3385"/>
<path d="M371 351.333V297.667C371 293.45 367.55 290 363.333 290H309.667C305.45 290 302 293.45 302 297.667V351.333C302 355.55 305.45 359 309.667 359H363.333C367.55 359 371 355.55 371 351.333ZM323.083 330.25L332.667 341.788L346.083 324.5L363.333 347.5H309.667L323.083 330.25Z" fill="#F7F7F7" fill-opacity="0.2"/>
<rect x="416" width="122" height="119" rx="20" fill="#FF3385"/>
<path d="M512 85.3333V31.6667C512 27.45 508.55 24 504.333 24H450.667C446.45 24 443 27.45 443 31.6667V85.3333C443 89.55 446.45 93 450.667 93H504.333C508.55 93 512 89.55 512 85.3333ZM464.083 64.25L473.667 75.7883L487.083 58.5L504.333 81.5H450.667L464.083 64.25Z" fill="#F7F7F7" fill-opacity="0.2"/>
<rect x="416" width="122" height="119" rx="20" fill="#FF3385"/>
<path d="M512 85.3333V31.6667C512 27.45 508.55 24 504.333 24H450.667C446.45 24 443 27.45 443 31.6667V85.3333C443 89.55 446.45 93 450.667 93H504.333C508.55 93 512 89.55 512 85.3333ZM464.083 64.25L473.667 75.7883L487.083 58.5L504.333 81.5H450.667L464.083 64.25Z" fill="#F7F7F7" fill-opacity="0.2"/>
<rect x="416" y="133" width="122" height="118" rx="20" fill="#FF3385"/>
<path d="M512 218.333V164.667C512 160.45 508.55 157 504.333 157H450.667C446.45 157 443 160.45 443 164.667V218.333C443 222.55 446.45 226 450.667 226H504.333C508.55 226 512 222.55 512 218.333ZM464.083 197.25L473.667 208.788L487.083 191.5L504.333 214.5H450.667L464.083 197.25Z" fill="#F7F7F7" fill-opacity="0.2"/>
<rect x="416" y="133" width="122" height="118" rx="20" fill="#FF3385"/>
<path d="M512 218.333V164.667C512 160.45 508.55 157 504.333 157H450.667C446.45 157 443 160.45 443 164.667V218.333C443 222.55 446.45 226 450.667 226H504.333C508.55 226 512 222.55 512 218.333ZM464.083 197.25L473.667 208.788L487.083 191.5L504.333 214.5H450.667L464.083 197.25Z" fill="#F7F7F7" fill-opacity="0.2"/>
<rect x="416" y="265" width="122" height="119" rx="20" fill="#FF3385"/>
<path d="M512 351.333V297.667C512 293.45 508.55 290 504.333 290H450.667C446.45 290 443 293.45 443 297.667V351.333C443 355.55 446.45 359 450.667 359H504.333C508.55 359 512 355.55 512 351.333ZM464.083 330.25L473.667 341.788L487.083 324.5L504.333 347.5H450.667L464.083 330.25Z" fill="#F7F7F7" fill-opacity="0.2"/>
<rect x="416" y="265" width="122" height="119" rx="20" fill="#FF3385"/>
<path d="M512 351.333V297.667C512 293.45 508.55 290 504.333 290H450.667C446.45 290 443 293.45 443 297.667V351.333C443 355.55 446.45 359 450.667 359H504.333C508.55 359 512 355.55 512 351.333ZM464.083 330.25L473.667 341.788L487.083 324.5L504.333 347.5H450.667L464.083 330.25Z" fill="#F7F7F7" fill-opacity="0.2"/>
<rect x="477" width="61" height="384" fill="#FFFFFF"/>
</svg>

<svg width="538" height="384" fill="none" xmlns="http://www.w3.org/2000/svg"><rect width="122" height="119" rx="20" fill="#FF3385"/><path d="M96 85.333V31.667C96 27.45 92.55 24 88.333 24H34.667C30.45 24 27 27.45 27 31.667v53.666C27 89.55 30.45 93 34.667 93h53.666C92.55 93 96 89.55 96 85.333zM48.083 64.25l9.584 11.538L71.083 58.5l17.25 23H34.667l13.416-17.25z" fill="#F7F7F7" fill-opacity=".2"/><rect width="122" height="119" rx="20" fill="#FF3385"/><path d="M96 85.333V31.667C96 27.45 92.55 24 88.333 24H34.667C30.45 24 27 27.45 27 31.667v53.666C27 89.55 30.45 93 34.667 93h53.666C92.55 93 96 89.55 96 85.333zM48.083 64.25l9.584 11.538L71.083 58.5l17.25 23H34.667l13.416-17.25z" fill="#F7F7F7" fill-opacity=".2"/><rect x="138" width="122" height="119" rx="20" fill="#FF3385"/><path d="M234 85.333V31.667c0-4.217-3.45-7.667-7.667-7.667h-53.666C168.45 24 165 27.45 165 31.667v53.666c0 4.217 3.45 7.667 7.667 7.667h53.666c4.217 0 7.667-3.45 7.667-7.667zM186.083 64.25l9.584 11.538L209.083 58.5l17.25 23h-53.666l13.416-17.25z" fill="#F7F7F7" fill-opacity=".2"/><rect x="138" width="122" height="119" rx="20" fill="#FF3385"/><path d="M234 85.333V31.667c0-4.217-3.45-7.667-7.667-7.667h-53.666C168.45 24 165 27.45 165 31.667v53.666c0 4.217 3.45 7.667 7.667 7.667h53.666c4.217 0 7.667-3.45 7.667-7.667zM186.083 64.25l9.584 11.538L209.083 58.5l17.25 23h-53.666l13.416-17.25z" fill="#F7F7F7" fill-opacity=".2"/><rect x="276" width="122" height="119" rx="20" fill="#FF3385"/><path d="M371 85.333V31.667c0-4.217-3.45-7.667-7.667-7.667h-53.666C305.45 24 302 27.45 302 31.667v53.666c0 4.217 3.45 7.667 7.667 7.667h53.666c4.217 0 7.667-3.45 7.667-7.667zM323.083 64.25l9.584 11.538L346.083 58.5l17.25 23h-53.666l13.416-17.25z" fill="#F7F7F7" fill-opacity=".2"/><rect x="276" width="122" height="119" rx="20" fill="#FF3385"/><path d="M371 85.333V31.667c0-4.217-3.45-7.667-7.667-7.667h-53.666C305.45 24 302 27.45 302 31.667v53.666c0 4.217 3.45 7.667 7.667 7.667h53.666c4.217 0 7.667-3.45 7.667-7.667zM323.083 64.25l9.584 11.538L346.083 58.5l17.25 23h-53.666l13.416-17.25z" fill="#F7F7F7" fill-opacity=".2"/><rect y="133" width="122" height="118" rx="20" fill="#FF3385"/><path d="M96 218.333v-53.666c0-4.217-3.45-7.667-7.667-7.667H34.667C30.45 157 27 160.45 27 164.667v53.666c0 4.217 3.45 7.667 7.667 7.667h53.666c4.217 0 7.667-3.45 7.667-7.667zM48.083 197.25l9.584 11.538L71.083 191.5l17.25 23H34.667l13.416-17.25z" fill="#F7F7F7" fill-opacity=".2"/><rect y="133" width="122" height="118" rx="20" fill="#FF3385"/><path d="M96 218.333v-53.666c0-4.217-3.45-7.667-7.667-7.667H34.667C30.45 157 27 160.45 27 164.667v53.666c0 4.217 3.45 7.667 7.667 7.667h53.666c4.217 0 7.667-3.45 7.667-7.667zM48.083 197.25l9.584 11.538L71.083 191.5l17.25 23H34.667l13.416-17.25z" fill="#F7F7F7" fill-opacity=".2"/><rect x="138" y="133" width="122" height="118" rx="20" fill="#FF3385"/><path d="M234 218.333v-53.666c0-4.217-3.45-7.667-7.667-7.667h-53.666c-4.217 0-7.667 3.45-7.667 7.667v53.666c0 4.217 3.45 7.667 7.667 7.667h53.666c4.217 0 7.667-3.45 7.667-7.667zm-47.917-21.083l9.584 11.538 13.416-17.288 17.25 23h-53.666l13.416-17.25z" fill="#F7F7F7" fill-opacity=".2"/><rect x="138" y="133" width="122" height="118" rx="20" fill="#FF3385"/><path d="M234 218.333v-53.666c0-4.217-3.45-7.667-7.667-7.667h-53.666c-4.217 0-7.667 3.45-7.667 7.667v53.666c0 4.217 3.45 7.667 7.667 7.667h53.666c4.217 0 7.667-3.45 7.667-7.667zm-47.917-21.083l9.584 11.538 13.416-17.288 17.25 23h-53.666l13.416-17.25z" fill="#F7F7F7" fill-opacity=".2"/><rect x="276" y="133" width="122" height="118" rx="20" fill="#FF3385"/><path d="M371 218.333v-53.666c0-4.217-3.45-7.667-7.667-7.667h-53.666c-4.217 0-7.667 3.45-7.667 7.667v53.666c0 4.217 3.45 7.667 7.667 7.667h53.666c4.217 0 7.667-3.45 7.667-7.667zm-47.917-21.083l9.584 11.538 13.416-17.288 17.25 23h-53.666l13.416-17.25z" fill="#F7F7F7" fill-opacity=".2"/><rect x="276" y="133" width="122" height="118" rx="20" fill="#FF3385"/><path d="M371 218.333v-53.666c0-4.217-3.45-7.667-7.667-7.667h-53.666c-4.217 0-7.667 3.45-7.667 7.667v53.666c0 4.217 3.45 7.667 7.667 7.667h53.666c4.217 0 7.667-3.45 7.667-7.667zm-47.917-21.083l9.584 11.538 13.416-17.288 17.25 23h-53.666l13.416-17.25z" fill="#F7F7F7" fill-opacity=".2"/><rect y="265" width="122" height="119" rx="20" fill="#FF3385"/><path d="M96 351.333v-53.666c0-4.217-3.45-7.667-7.667-7.667H34.667C30.45 290 27 293.45 27 297.667v53.666c0 4.217 3.45 7.667 7.667 7.667h53.666c4.217 0 7.667-3.45 7.667-7.667zM48.083 330.25l9.584 11.538L71.083 324.5l17.25 23H34.667l13.416-17.25z" fill="#F7F7F7" fill-opacity=".2"/><rect y="265" width="122" height="119" rx="20" fill="#FF3385"/><path d="M96 351.333v-53.666c0-4.217-3.45-7.667-7.667-7.667H34.667C30.45 290 27 293.45 27 297.667v53.666c0 4.217 3.45 7.667 7.667 7.667h53.666c4.217 0 7.667-3.45 7.667-7.667zM48.083 330.25l9.584 11.538L71.083 324.5l17.25 23H34.667l13.416-17.25z" fill="#F7F7F7" fill-opacity=".2"/><rect x="138" y="265" width="122" height="119" rx="20" fill="#FF3385"/><path d="M234 351.333v-53.666c0-4.217-3.45-7.667-7.667-7.667h-53.666c-4.217 0-7.667 3.45-7.667 7.667v53.666c0 4.217 3.45 7.667 7.667 7.667h53.666c4.217 0 7.667-3.45 7.667-7.667zm-47.917-21.083l9.584 11.538 13.416-17.288 17.25 23h-53.666l13.416-17.25z" fill="#F7F7F7" fill-opacity=".2"/><rect x="138" y="265" width="122" height="119" rx="20" fill="#FF3385"/><path d="M234 351.333v-53.666c0-4.217-3.45-7.667-7.667-7.667h-53.666c-4.217 0-7.667 3.45-7.667 7.667v53.666c0 4.217 3.45 7.667 7.667 7.667h53.666c4.217 0 7.667-3.45 7.667-7.667zm-47.917-21.083l9.584 11.538 13.416-17.288 17.25 23h-53.666l13.416-17.25z" fill="#F7F7F7" fill-opacity=".2"/><rect x="276" y="265" width="122" height="119" rx="20" fill="#FF3385"/><path d="M371 351.333v-53.666c0-4.217-3.45-7.667-7.667-7.667h-53.666c-4.217 0-7.667 3.45-7.667 7.667v53.666c0 4.217 3.45 7.667 7.667 7.667h53.666c4.217 0 7.667-3.45 7.667-7.667zm-47.917-21.083l9.584 11.538 13.416-17.288 17.25 23h-53.666l13.416-17.25z" fill="#F7F7F7" fill-opacity=".2"/><rect x="276" y="265" width="122" height="119" rx="20" fill="#FF3385"/><path d="M371 351.333v-53.666c0-4.217-3.45-7.667-7.667-7.667h-53.666c-4.217 0-7.667 3.45-7.667 7.667v53.666c0 4.217 3.45 7.667 7.667 7.667h53.666c4.217 0 7.667-3.45 7.667-7.667zm-47.917-21.083l9.584 11.538 13.416-17.288 17.25 23h-53.666l13.416-17.25z" fill="#F7F7F7" fill-opacity=".2"/><rect x="416" width="122" height="119" rx="20" fill="#FF3385"/><path d="M512 85.333V31.667c0-4.217-3.45-7.667-7.667-7.667h-53.666C446.45 24 443 27.45 443 31.667v53.666c0 4.217 3.45 7.667 7.667 7.667h53.666c4.217 0 7.667-3.45 7.667-7.667zM464.083 64.25l9.584 11.538L487.083 58.5l17.25 23h-53.666l13.416-17.25z" fill="#F7F7F7" fill-opacity=".2"/><rect x="416" width="122" height="119" rx="20" fill="#FF3385"/><path d="M512 85.333V31.667c0-4.217-3.45-7.667-7.667-7.667h-53.666C446.45 24 443 27.45 443 31.667v53.666c0 4.217 3.45 7.667 7.667 7.667h53.666c4.217 0 7.667-3.45 7.667-7.667zM464.083 64.25l9.584 11.538L487.083 58.5l17.25 23h-53.666l13.416-17.25z" fill="#F7F7F7" fill-opacity=".2"/><rect x="416" y="133" width="122" height="118" rx="20" fill="#FF3385"/><path d="M512 218.333v-53.666c0-4.217-3.45-7.667-7.667-7.667h-53.666c-4.217 0-7.667 3.45-7.667 7.667v53.666c0 4.217 3.45 7.667 7.667 7.667h53.666c4.217 0 7.667-3.45 7.667-7.667zm-47.917-21.083l9.584 11.538 13.416-17.288 17.25 23h-53.666l13.416-17.25z" fill="#F7F7F7" fill-opacity=".2"/><rect x="416" y="133" width="122" height="118" rx="20" fill="#FF3385"/><path d="M512 218.333v-53.666c0-4.217-3.45-7.667-7.667-7.667h-53.666c-4.217 0-7.667 3.45-7.667 7.667v53.666c0 4.217 3.45 7.667 7.667 7.667h53.666c4.217 0 7.667-3.45 7.667-7.667zm-47.917-21.083l9.584 11.538 13.416-17.288 17.25 23h-53.666l13.416-17.25z" fill="#F7F7F7" fill-opacity=".2"/><rect x="416" y="265" width="122" height="119" rx="20" fill="#FF3385"/><path d="M512 351.333v-53.666c0-4.217-3.45-7.667-7.667-7.667h-53.666c-4.217 0-7.667 3.45-7.667 7.667v53.666c0 4.217 3.45 7.667 7.667 7.667h53.666c4.217 0 7.667-3.45 7.667-7.667zm-47.917-21.083l9.584 11.538 13.416-17.288 17.25 23h-53.666l13.416-17.25z" fill="#F7F7F7" fill-opacity=".2"/><rect x="416" y="265" width="122" height="119" rx="20" fill="#FF3385"/><path d="M512 351.333v-53.666c0-4.217-3.45-7.667-7.667-7.667h-53.666c-4.217 0-7.667 3.45-7.667 7.667v53.666c0 4.217 3.45 7.667 7.667 7.667h53.666c4.217 0 7.667-3.45 7.667-7.667zm-47.917-21.083l9.584 11.538 13.416-17.288 17.25 23h-53.666l13.416-17.25z" fill="#F7F7F7" fill-opacity=".2"/><path fill="#FFF" d="M477 0h61v384h-61z"/></svg>
